packages/frontend/src/images/unifed.svg

<?xml version="1.0" encoding="UTF-8" standalone="no"?>
<svg
   xmlns:dc="http://purl.org/dc/elements/1.1/"
   xmlns:cc="http://creativecommons.org/ns#"
   xmlns:rdf="http://www.w3.org/1999/02/22-rdf-syntax-ns#"
   xmlns:svg="http://www.w3.org/2000/svg"
   xmlns="http://www.w3.org/2000/svg"
   xmlns:sodipodi="http://sodipodi.sourceforge.net/DTD/sodipodi-0.dtd"
   xmlns:inkscape="http://www.inkscape.org/namespaces/inkscape"
   viewBox="0 0 908.99736 709.33789"
   height="709.33789"
   width="908.99738"
   xml:space="preserve"
   id="svg3767"
   version="1.1"
   sodipodi:docname="unifed.svg"
   inkscape:version="0.92.5 (2060ec1f9f, 2020-04-08)"><sodipodi:namedview
   pagecolor="#ffffff"
   bordercolor="#666666"
   borderopacity="1"
   objecttolerance="10"
   gridtolerance="10"
   guidetolerance="10"
   inkscape:pageopacity="0"
   inkscape:pageshadow="2"
   inkscape:window-width="2552"
   inkscape:window-height="1356"
   id="namedview23"
   showgrid="false"
   inkscape:zoom="0.99999999"
   inkscape:cx="183.09479"
   inkscape:cy="294.52793"
   inkscape:window-x="0"
   inkscape:window-y="80"
   inkscape:window-maximized="0"
   inkscape:current-layer="g3933"
   inkscape:pagecheckerboard="true" />
	<metadata
   id="metadata3773">
		<rdf:RDF>
			<cc:Work
   rdf:about="">
				<dc:format>image/svg+xml</dc:format>
				<dc:type
   rdf:resource="http://purl.org/dc/dcmitype/StillImage" />
				<dc:title />
			</cc:Work>
		</rdf:RDF>
	</metadata>
	<defs
   id="defs3771"><style
     id="style3899">.cls-1{fill:#5b5b5b;}.cls-2{fill:#fefefe;}</style></defs>
	<g
   transform="matrix(1.3333333,0,0,-1.3333333,-92.365917,761.2443)"
   id="g3775">
		<g
   transform="matrix(2.7510218,0,0,-2.7510218,105.08324,556.14328)"
   id="g3933">
			<path
   id="path3986"
   transform="matrix(0.27262598,0,0,0.27262598,-38.197894,-14.224799)"
   d="m 197.71875,32.457031 c -25.52167,0 -49.16988,5.77655 -68.87695,22.751953 -31.804512,27.47284 -43.627414,62.711426 -32.232425,102.710936 11.394985,39.99951 39.140315,63.6087 80.310545,70.82813 14.90715,2.65369 30.009,1.28711 45.0332,1.28711 5.38529,0.039 6.43887,1.63924 3.90235,6.16601 a 49.989638,49.989638 0 0 0 -2.22461,4.60547 341.06905,341.06905 0 0 0 -31.64844,129.16797 345.2446,345.2446 0 0 0 33.63867,167.80273 c 2.80972,5.77546 0.70201,6.32227 -4.37109,6.32227 -11.12178,0.0391 -22.32148,-0.97419 -33.36523,1.40625 -42.02879,8.93649 -69.73581,34.02764 -79.10157,75.82226 -9.092558,40.54585 4.25516,74.57442 37.11328,100.44727 19.51197,15.3364 42.145,19.94141 66.33985,19.94141 h 341.49805 c 114.57423,-0.0516 229.10931,-0.0261 343.60546,0.0781 40.858,0 72.11757,-16.74053 92.29297,-52.60351 30.71189,-54.67253 -1.87476,-127.64708 -62.94726,-142.08594 -17.32663,-4.09748 -34.73015,-2.49857 -52.13477,-2.9668 -9.36572,-0.27319 -9.36527,-0.0394 -5.46289,-8.3125 A 348.87383,348.87383 0 0 0 896.4043,324.2793 344.58119,344.58119 0 0 0 869.51562,239.24609 c -4.21445,-9.20963 -4.09768,-9.21093 5.61915,-9.21093 6.28289,0 12.64484,0.31187 18.88867,-0.27344 41.13122,-3.66824 71.1402,-24.07698 86.39844,-62.4375 C 995.29005,129.74419 987.87571,94.778715 960.91016,64.574219 940.34454,41.354984 913.49712,32.457031 882.86328,32.457031 H 688.48438 Z M 547.29297,230.29492 a 157.03225,157.03225 0 0 1 5.89453,0.13086 156.91518,156.91518 0 1 1 -17.20898,313.2832 C 448.52591,537.73831 382.927,461.09718 390.14648,375.67383 A 157.03225,157.03225 0 0 1 547.29297,230.29492 Z"
   style="fill:#ffffff;fill-opacity:1;stroke-width:3.90239143"
   inkscape:connector-curvature="0" />
			<path
   style="fill:#6d6d6d;fill-opacity:1;stroke-width:1.06389332"
   id="path3988"
   d="m 84.018145,48.92511 c -4.33075,2.865797 -8.24093,6.321229 -11.617686,10.266569 -14.159502,16.700732 -15.711035,40.704004 -3.819396,59.088641 9.447388,14.3732 22.958831,22.20345 40.172627,23.05457 12.76672,0.63833 25.65047,0.15957 38.49169,0.20214 h 39.28954 c 0,0 0.9407,-0.0597 1.23857,0.77018 0.2236,0.62769 -0.36615,1.19802 -0.36615,1.19802 -8.90387,10.2209 -8.75769,25.48554 0.34029,35.53404 l 1.06386,1.15965 c -0.45747,0.60641 -1.06386,0.37236 -1.51073,0.37236 -26.39518,0 -52.79038,0.12765 -79.18558,-0.0958 C 94.027965,180.29006 80.216266,176.5462 67.963861,169.59188 25.292404,146.35006 9.1147023,93.202199 31.599985,50.127295 c 0.376072,-1.06867 1.411352,-1.761747 2.542698,-1.702231 h 48.588029 c 0.488791,-0.08664 0.98515,0.10616 1.287289,0.500032 z"
   class="cls-2"
   inkscape:connector-curvature="0" />
			<path
   style="fill:#3f3f40;fill-opacity:1;stroke-width:1.06389332"
   id="path3990"
   d="m 138.03205,134.11105 a 69.770129,69.770129 0 0 0 11.8305,-11.12832 c 18.24575,-22.77796 14.05402,-54.822431 -9.46866,-72.344751 -9.13884,-6.78764 -19.55438,-9.660153 -30.85293,-9.649515 q -36.41708,0 -72.834128,0 c -0.531952,0 -1.063903,0 -1.58521,0 -0.521307,0 -1.361788,0.255334 -1.649027,-0.319176 -0.287257,-0.574503 0.478744,-0.978783 0.829836,-1.404338 a 26.820752,26.820752 0 0 0 6.71315,-19.150083 26.597335,26.597335 0 0 0 -6.73444,-16.3733152 c -0.393637,-0.4361975 -0.755356,-0.9043142 -1.12772,-1.3617876 0,0 0,-0.1170247 0,-0.2127574 0.361719,-0.3723661 0.851108,-0.2127591 1.287307,-0.2127591 26.459034,0 52.928678,-0.361712 79.387712,0.1595693 21.80984,0.4361939 40.94928,8.511148 57.19494,23.139677 a 86.547728,86.547728 0 0 1 26.44839,43.619608 c 5.68118,22.277928 3.04273,43.619628 -7.51109,64.067658 -0.59578,1.15964 -1.44689,1.13837 -2.44696,1.13837 h -49.48167 z"
   class="cls-2"
   inkscape:connector-curvature="0" />
			<path
   style="fill:#6d6d6d;fill-opacity:1;stroke-width:1.06389332"
   id="path3994"
   d="m 148.78799,1.9754931 h 2.1278 c 17.64998,0 35.3106,0 52.96062,0 a 19.515776,19.515776 0 0 1 0.78727,39.0236089 c -3.19169,0.10638 -6.38338,0 -9.52183,0 A 2.3724823,2.3724823 0 0 1 192.8651,39.786262 97.005799,97.005799 0 0 0 149.44761,2.5499948 c -0.0955,0.010573 -0.17007,-0.1170247 -0.65962,-0.5745017 z"
   class="cls-2"
   inkscape:connector-curvature="0" />
			<path
   style="fill:#3f3f40;fill-opacity:1;stroke-width:1.06389332"
   id="path3996"
   d="m 72.613218,180.61383 h -9.106941 c -15.213659,0 -30.416691,0 -45.619723,0 a 19.522444,19.522444 0 0 1 -0.468117,-39.03425 c 2.978897,-0.0638 5.957812,0 8.926064,0 a 2.9257068,2.9257068 0 0 1 2.883162,1.57456 96.314267,96.314267 0 0 0 30.065635,29.99116 c 4.276832,2.65973 8.745186,5.05349 13.31992,7.46853 z"
   class="cls-2"
   inkscape:connector-curvature="0" />
			<path
   style="fill:#3f3f40;fill-opacity:1;stroke-width:1.06389332"
   id="path3998"
   d="M 33.58962,21.806465 A 19.533082,19.533082 0 1 1 14.131011,1.9861347 19.501165,19.501165 0 0 1 33.58962,21.806465 Z"
   class="cls-2"
   inkscape:connector-curvature="0" />
			<path
   style="fill:#6d6d6d;fill-opacity:1;stroke-width:1.06389332"
   id="path4000"
   d="m 188.25845,161.02755 a 19.533082,19.533082 0 1 1 19.7033,19.57564 19.511805,19.511805 0 0 1 -19.7033,-19.57564 z"
   class="cls-2"
   inkscape:connector-curvature="0" />
		<path
   inkscape:connector-curvature="0"
   style="fill:#6d6d6d;fill-opacity:1;stroke-width:1.06389332"
   id="path3994-6"
   d="m 152.35754,141.561 h 2.1278 52.96062 c 10.774,-0.21433 19.6826,8.34435 19.89996,19.11828 0.21735,10.77393 -8.33881,19.68495 -19.11269,19.90533 l -27.61089,-0.003 c 0,0 -9.71915,-30.67977 -27.60518,-38.44603 -0.0955,0.0106 -0.17007,-0.11703 -0.65962,-0.57451 z"
   class="cls-2"
   sodipodi:nodetypes="cccscccc" /><path
   inkscape:connector-curvature="0"
   style="fill:#3f3f3f;fill-opacity:1;stroke-width:1.06389332"
   id="path3996-7"
   d="M 68.624995,41.012524 H 59.518055 13.89833 C 3.2691098,40.927087 -5.3383232,32.353609 -5.4657887,21.724816 -5.5932541,11.096023 2.8060986,2.3185912 13.430213,1.9782747 c 2.978897,-0.0638 22.705199,0 25.67345,0 0,0 9.538631,27.2915553 16.201412,31.5657193 4.276831,2.65973 8.745185,5.05349 13.31992,7.46853 z"
   class="cls-2"
   sodipodi:nodetypes="cccscccc" /></g>
	</g>
</svg>

<?xml version="1.0" encoding="UTF-8" standalone="no"?>
<svg
   xmlns:dc="http://purl.org/dc/elements/1.1/"
   xmlns:cc="http://creativecommons.org/ns#"
   xmlns:rdf="http://www.w3.org/1999/02/22-rdf-syntax-ns#"
   xmlns:svg="http://www.w3.org/2000/svg"
   xmlns="http://www.w3.org/2000/svg"
   xmlns:sodipodi="http://sodipodi.sourceforge.net/DTD/sodipodi-0.dtd"
   xmlns:inkscape="http://www.inkscape.org/namespaces/inkscape"
   viewBox="0 0 1122.52 793.70135"
   height="793.70135"
   width="1122.52"
   xml:space="preserve"
   id="svg3767"
   version="1.1"
   sodipodi:docname="unifed.svg"
   inkscape:version="0.92.5 (2060ec1f9f, 2020-04-08)"><sodipodi:namedview
   pagecolor="#ffffff"
   bordercolor="#666666"
   borderopacity="1"
   objecttolerance="10"
   gridtolerance="10"
   guidetolerance="10"
   inkscape:pageopacity="0"
   inkscape:pageshadow="2"
   inkscape:window-width="2552"
   inkscape:window-height="1356"
   id="namedview23"
   showgrid="false"
   inkscape:zoom="5.6568542"
   inkscape:cx="275.46071"
   inkscape:cy="666.43437"
   inkscape:window-x="0"
   inkscape:window-y="80"
   inkscape:window-maximized="0"
   inkscape:current-layer="g3933"
   inkscape:pagecheckerboard="true" />
	<metadata
   id="metadata3773">
		<rdf:RDF>
			<cc:Work
   rdf:about="">
				<dc:format>image/svg+xml</dc:format>
				<dc:type
   rdf:resource="http://purl.org/dc/dcmitype/StillImage" />
				<dc:title></dc:title>
			</cc:Work>
		</rdf:RDF>
	</metadata>
	<defs
   id="defs3771">
		<style
   id="style3899">.cls-1{fill:#5b5b5b;}.cls-2{fill:#fefefe;}</style>
	</defs>
	<g
   transform="matrix(1.3333333,0,0,-1.3333333,0,793.70133)"
   id="g3775">
		<g
   transform="matrix(2.7510218,0,0,-2.7510218,105.08324,556.14328)"
   id="g3933">
			<path
   id="path3986"
   transform="matrix(0.27262598,0,0,0.27262598,-38.197894,-14.224799)"
   d="M 197.71875 32.457031 C 172.19708 32.457031 148.54887 38.233581 128.8418 55.208984 C 97.037288 82.681824 85.214386 117.92041 96.609375 157.91992 C 108.00436 197.91943 135.74969 221.52862 176.91992 228.74805 C 191.82707 231.40174 206.92892 230.03516 221.95312 230.03516 C 227.33841 230.07418 228.39199 231.6744 225.85547 236.20117 A 49.989638 49.989638 0 0 0 223.63086 240.80664 A 341.06905 341.06905 0 0 0 191.98242 369.97461 A 345.2446 345.2446 0 0 0 225.62109 537.77734 C 228.43081 543.5528 226.3231 544.09961 221.25 544.09961 C 210.12822 544.13871 198.92852 543.12542 187.88477 545.50586 C 145.85598 554.44235 118.14896 579.5335 108.7832 621.32812 C 99.690642 661.87397 113.03836 695.90254 145.89648 721.77539 C 165.40845 737.11179 188.04148 741.7168 212.23633 741.7168 L 553.73438 741.7168 C 668.30861 741.6652 782.84369 741.69075 897.33984 741.79492 C 938.19784 741.79492 969.45741 725.05439 989.63281 689.19141 C 1020.3447 634.51888 987.75805 561.54433 926.68555 547.10547 C 909.35892 543.00799 891.9554 544.6069 874.55078 544.13867 C 865.18506 543.86548 865.18551 544.09926 869.08789 535.82617 A 348.87383 348.87383 0 0 0 896.4043 324.2793 A 344.58119 344.58119 0 0 0 869.51562 239.24609 C 865.30117 230.03646 865.41794 230.03516 875.13477 230.03516 C 881.41766 230.03516 887.77961 230.34703 894.02344 229.76172 C 935.15466 226.09348 965.16364 205.68474 980.42188 167.32422 C 995.29005 129.74419 987.87571 94.778715 960.91016 64.574219 C 940.34454 41.354984 913.49712 32.457031 882.86328 32.457031 L 688.48438 32.457031 L 197.71875 32.457031 z M 547.29297 230.29492 A 157.03225 157.03225 0 0 1 553.1875 230.42578 A 156.91518 156.91518 0 1 1 535.97852 543.70898 C 448.52591 537.73831 382.927 461.09718 390.14648 375.67383 A 157.03225 157.03225 0 0 1 547.29297 230.29492 z "
   style="fill:#ffffff;stroke-width:3.90239143;fill-opacity:1" />
			<path
   style="fill:#6d6d6d;stroke-width:1.06389332;fill-opacity:1"
   id="path3988"
   d="m 84.018145,48.92511 c -4.33075,2.865797 -8.24093,6.321229 -11.617686,10.266569 -14.159502,16.700732 -15.711035,40.704004 -3.819396,59.088641 9.447388,14.3732 22.958831,22.20345 40.172627,23.05457 12.76672,0.63833 25.65047,0.15957 38.49169,0.20214 h 39.28954 c 0,0 0.9407,-0.0597 1.23857,0.77018 0.2236,0.62769 -0.36615,1.19802 -0.36615,1.19802 -8.90387,10.2209 -8.75769,25.48554 0.34029,35.53404 l 1.06386,1.15965 c -0.45747,0.60641 -1.06386,0.37236 -1.51073,0.37236 -26.39518,0 -52.79038,0.12765 -79.18558,-0.0958 C 94.027965,180.29006 80.216266,176.5462 67.963861,169.59188 25.292404,146.35006 9.1147023,93.202199 31.599985,50.127295 c 0.376072,-1.06867 1.411352,-1.761747 2.542698,-1.702231 h 48.588029 c 0.488791,-0.08664 0.98515,0.10616 1.287289,0.500032 z"
   class="cls-2" />
			<path
   style="fill:#3f3f40;stroke-width:1.06389332;fill-opacity:1"
   id="path3990"
   d="m 138.03205,134.11105 a 69.770129,69.770129 0 0 0 11.8305,-11.12832 c 18.24575,-22.77796 14.05402,-54.822431 -9.46866,-72.344751 -9.13884,-6.78764 -19.55438,-9.660153 -30.85293,-9.649515 q -36.41708,0 -72.834128,0 c -0.531952,0 -1.063903,0 -1.58521,0 -0.521307,0 -1.361788,0.255334 -1.649027,-0.319176 -0.287257,-0.574503 0.478744,-0.978783 0.829836,-1.404338 a 26.820752,26.820752 0 0 0 6.71315,-19.150083 26.597335,26.597335 0 0 0 -6.73444,-16.3733152 c -0.393637,-0.4361975 -0.755356,-0.9043142 -1.12772,-1.3617876 0,0 0,-0.1170247 0,-0.2127574 0.361719,-0.3723661 0.851108,-0.2127591 1.287307,-0.2127591 26.459034,0 52.928678,-0.361712 79.387712,0.1595693 21.80984,0.4361939 40.94928,8.511148 57.19494,23.139677 a 86.547728,86.547728 0 0 1 26.44839,43.619608 c 5.68118,22.277928 3.04273,43.619628 -7.51109,64.067658 -0.59578,1.15964 -1.44689,1.13837 -2.44696,1.13837 h -49.48167 z"
   class="cls-2" />
			<path
   style="fill:#6d6d6d;stroke-width:1.06389332;fill-opacity:1"
   id="path3994"
   d="m 148.78799,1.9754931 h 2.1278 c 17.64998,0 35.3106,0 52.96062,0 a 19.515776,19.515776 0 0 1 0.78727,39.0236089 c -3.19169,0.10638 -6.38338,0 -9.52183,0 A 2.3724823,2.3724823 0 0 1 192.8651,39.786262 97.005799,97.005799 0 0 0 149.44761,2.5499948 c -0.0955,0.010573 -0.17007,-0.1170247 -0.65962,-0.5745017 z"
   class="cls-2" />
			<path
   style="fill:#3f3f40;stroke-width:1.06389332;fill-opacity:1"
   id="path3996"
   d="m 72.613218,180.61383 h -9.106941 c -15.213659,0 -30.416691,0 -45.619723,0 a 19.522444,19.522444 0 0 1 -0.468117,-39.03425 c 2.978897,-0.0638 5.957812,0 8.926064,0 a 2.9257068,2.9257068 0 0 1 2.883162,1.57456 96.314267,96.314267 0 0 0 30.065635,29.99116 c 4.276832,2.65973 8.745186,5.05349 13.31992,7.46853 z"
   class="cls-2" />
			<path
   style="fill:#3f3f40;stroke-width:1.06389332;fill-opacity:1"
   id="path3998"
   d="M 33.58962,21.806465 A 19.533082,19.533082 0 1 1 14.131011,1.9861347 19.501165,19.501165 0 0 1 33.58962,21.806465 Z"
   class="cls-2" />
			<path
   style="fill:#6d6d6d;stroke-width:1.06389332;fill-opacity:1"
   id="path4000"
   d="m 188.25845,161.02755 a 19.533082,19.533082 0 1 1 19.7033,19.57564 19.511805,19.511805 0 0 1 -19.7033,-19.57564 z"
   class="cls-2" />
		<path
   inkscape:connector-curvature="0"
   style="fill:#6d6d6d;fill-opacity:1;stroke-width:1.06389332"
   id="path3994-6"
   d="m 152.35754,141.561 h 2.1278 52.96062 c 10.774,-0.21433 19.6826,8.34435 19.89996,19.11828 0.21735,10.77393 -8.33881,19.68495 -19.11269,19.90533 l -27.61089,-0.003 c 0,0 -9.71915,-30.67977 -27.60518,-38.44603 -0.0955,0.0106 -0.17007,-0.11703 -0.65962,-0.57451 z"
   class="cls-2"
   sodipodi:nodetypes="cccscccc" /><path
   inkscape:connector-curvature="0"
   style="fill:#3f3f3f;fill-opacity:1;stroke-width:1.06389332"
   id="path3996-7"
   d="M 68.624995,41.012524 H 59.518055 13.89833 C 3.2691098,40.927087 -5.3383232,32.353609 -5.4657887,21.724816 -5.5932541,11.096023 2.8060986,2.3185912 13.430213,1.9782747 c 2.978897,-0.0638 22.705199,0 25.67345,0 0,0 9.538631,27.2915553 16.201412,31.5657193 4.276831,2.65973 8.745185,5.05349 13.31992,7.46853 z"
   class="cls-2"
   sodipodi:nodetypes="cccscccc" /></g>
	</g>
</svg>
